www/assets/icons/assistant_photo.svg

<svg xmlns="http://www.w3.org/2000/svg" width="24" height="24" viewBox="0 0 24 24" fill='currentColor'><path d="m13.9 5.5-.4-2h-9v17h2v-7h5.6l.4 2h7v-10z"/></svg>

<svg width="24" height="24" viewBox="0 0 24 24" xmlns="http://www.w3.org/2000/svg" fill='currentColor'><path d="M13.9 5.5L13.5 3.5H4.5V20.5H6.5V13.5H12.1L12.5 15.5H19.5V5.5H13.9Z"/></svg>
